src/img/icons/spotify.svg

<svg fill="none" height="56" viewBox="0 0 56 56" width="56" xmlns="http://www.w3.org/2000/svg"><path d="m28 .875c-14.9844 0-27.125 12.25-27.125 27.125 0 14.9844 12.1406 27.125 27.125 27.125 14.875 0 27.125-12.1406 27.125-27.125 0-14.875-12.25-27.125-27.125-27.125zm10.9375 39.9219c-.4375 0-.7656-.1094-1.0937-.3281-6.8907-4.1563-14.7657-4.2657-22.6407-2.7344-.4375.1094-.9843.3281-1.3125.3281-1.0937 0-1.75-.875-1.75-1.75 0-1.0937.6563-1.6406 1.5313-1.8594 8.9687-1.9687 18.0469-1.75 25.9219 2.8438.6562.4375.9843.875.9843 1.8593 0 .9844-.7656 1.6407-1.6406 1.6407zm2.9531-7.1094c-.5468 0-.9844-.3281-1.3125-.4375-6.8906-4.0469-17.0625-5.6875-26.1406-3.2812-.5469.1093-.7656.3281-1.3125.3281-1.0938 0-2.0781-.9844-2.0781-2.1875 0-1.0938.5469-1.8594 1.6406-2.1875 3.0625-.875 6.2344-1.5313 10.7187-1.5313 7.1094 0 14 1.75 19.3594 5.0313.875.4375 1.3125 1.2031 1.3125 2.0781-.1093 1.2031-.9843 2.1875-2.1875 2.1875zm3.3906-8.3125c-.5468 0-.875-.2188-1.4218-.4375-7.7656-4.7031-21.6563-5.7969-30.7344-3.2813-.3281.1094-.875.3282-1.4219.3282-1.4219 0-2.5156-1.2032-2.5156-2.625 0-1.5313.9844-2.2969 1.9687-2.625 3.8282-1.0938 8.0938-1.6406 12.7969-1.6406 7.9844 0 16.4063 1.6406 22.4219 5.25.875.4374 1.4219 1.0937 1.4219 2.4062 0 1.5312-1.2031 2.625-2.5157 2.625z" fill="#000"/></svg>

<svg width="56" height="56" viewBox="0 0 56 56" fill="none" xmlns="http://www.w3.org/2000/svg">
<path d="M28 0.875C13.0156 0.875 0.875 13.125 0.875 28C0.875 42.9844 13.0156 55.125 28 55.125C42.875 55.125 55.125 42.9844 55.125 28C55.125 13.125 42.875 0.875 28 0.875ZM38.9375 40.7969C38.5 40.7969 38.1719 40.6875 37.8438 40.4688C30.9531 36.3125 23.0781 36.2031 15.2031 37.7344C14.7656 37.8438 14.2188 38.0625 13.8906 38.0625C12.7969 38.0625 12.1406 37.1875 12.1406 36.3125C12.1406 35.2188 12.7969 34.6719 13.6719 34.4531C22.6406 32.4844 31.7188 32.7031 39.5938 37.2969C40.25 37.7344 40.5781 38.1719 40.5781 39.1562C40.5781 40.1406 39.8125 40.7969 38.9375 40.7969ZM41.8906 33.6875C41.3438 33.6875 40.9062 33.3594 40.5781 33.25C33.6875 29.2031 23.5156 27.5625 14.4375 29.9688C13.8906 30.0781 13.6719 30.2969 13.125 30.2969C12.0312 30.2969 11.0469 29.3125 11.0469 28.1094C11.0469 27.0156 11.5938 26.25 12.6875 25.9219C15.75 25.0469 18.9219 24.3906 23.4062 24.3906C30.5156 24.3906 37.4062 26.1406 42.7656 29.4219C43.6406 29.8594 44.0781 30.625 44.0781 31.5C43.9688 32.7031 43.0938 33.6875 41.8906 33.6875ZM45.2812 25.375C44.7344 25.375 44.4062 25.1562 43.8594 24.9375C36.0938 20.2344 22.2031 19.1406 13.125 21.6562C12.7969 21.7656 12.25 21.9844 11.7031 21.9844C10.2812 21.9844 9.1875 20.7812 9.1875 19.3594C9.1875 17.8281 10.1719 17.0625 11.1562 16.7344C14.9844 15.6406 19.25 15.0938 23.9531 15.0938C31.9375 15.0938 40.3594 16.7344 46.375 20.3438C47.25 20.7812 47.7969 21.4375 47.7969 22.75C47.7969 24.2812 46.5938 25.375 45.2812 25.375Z" fill="black"/>
</svg>
